src/assets/Icons/waves.svg

<svg width="1440" height="678" fill="none" xmlns="http://www.w3.org/2000/svg"><g opacity=".4" clip-path="url(#a)"><path opacity=".35" d="M1282.15 980c-6.2-10.216-12.4-20.213-18.53-30.283-146.72-235.915-323.276-357.558-498.376-343.839-165.981 13.207-325.76 151.049-463.506 373.976h980.412V980Z" fill="url(#b)"/><path opacity=".35" d="M1648.63 785.825c-124.91-277.8-271.7-573.916-439.51-503.134-118.41 49.912-196.33 325.158-300.512 459.206-135.338 173.963-241.419-48.234-362.53-197.678-163.427-201.4-365.304-146.599-511.002 138.644C-10.012 771.231-53.13 882.512-98 977.155h1746.63v-191.33Z" fill="url(#c)"/><path opacity=".35" d="M2406.59 660.534c-15.76-5.181-31.37-5.984-45.45-3.065-53.26 10.581-103.75 64.361-152.85 120.11-49.1 55.75-98.42 114.492-151.17 136.675-175.98 73.847-321.53-257.587-484.08-364.417-147.3-96.759-303.36-13.135-446.36 120.694C981.128 806.622 830.833 997.733 679.517 916.37c-106.519-57.282-195.674-242.701-294.095-364.563-174.444-216.286-359.686-211.47-540.258-106.829v578.072H2406.59V660.534Z" fill="url(#d)"/></g><defs><linearGradient id="b" x1="775.941" y1="435.622" x2="533.667" y2="1068.75" gradientUnits="userSpaceOnUse"><stop stop-color="#96FFE1"/><stop offset="1" stop-color="#00C48C"/></linearGradient><linearGradient id="c" x1="746.8" y1="-45.935" x2="273.292" y2="1127.04" gradientUnits="userSpaceOnUse"><stop stop-color="#96FFE1"/><stop offset="1" stop-color="#00C48C"/></linearGradient><linearGradient id="d" x1="1084.06" y1="82.626" x2="785.88" y2="1261.08" gradientUnits="userSpaceOnUse"><stop stop-color="#96FFE1"/><stop offset="1" stop-color="#00C48C"/></linearGradient><clipPath id="a"><path fill="#fff" transform="translate(-98)" d="M0 0h1635v980H0z"/></clipPath></defs></svg>

<svg width="1440" height="678" viewBox="0 0 1440 678" fill="none" xmlns="http://www.w3.org/2000/svg">
<g opacity="0.4" clip-path="url(#clip0_3089_10833)">
<path opacity="0.35" d="M1282.15 980C1275.95 969.784 1269.75 959.787 1263.62 949.717C1116.9 713.802 940.344 592.159 765.244 605.878C599.263 619.085 439.484 756.927 301.738 979.854H1282.15V980Z" fill="url(#paint0_linear_3089_10833)"/>
<path opacity="0.35" d="M1648.63 785.825C1523.72 508.025 1376.93 211.909 1209.12 282.691C1090.71 332.603 1012.79 607.849 908.608 741.897C773.27 915.86 667.189 693.663 546.078 544.219C382.651 342.819 180.774 397.62 35.0763 682.863C-10.0121 771.231 -53.1305 882.512 -98 977.155H1648.63V785.825Z" fill="url(#paint1_linear_3089_10833)"/>
<path opacity="0.35" d="M2406.59 660.534C2390.83 655.353 2375.22 654.55 2361.14 657.469C2307.88 668.05 2257.39 721.83 2208.29 777.579C2159.19 833.329 2109.87 892.071 2057.12 914.254C1881.14 988.101 1735.59 656.667 1573.04 549.837C1425.74 453.078 1269.68 536.702 1126.68 670.531C981.128 806.622 830.833 997.733 679.517 916.37C572.998 859.088 483.843 673.669 385.422 551.807C210.978 335.521 25.7363 340.337 -154.836 444.978V1023.05H2406.59V660.534Z" fill="url(#paint2_linear_3089_10833)"/>
</g>
<defs>
<linearGradient id="paint0_linear_3089_10833" x1="775.941" y1="435.622" x2="533.667" y2="1068.75" gradientUnits="userSpaceOnUse">
<stop stop-color="#96FFE1"/>
<stop offset="1" stop-color="#00C48C"/>
</linearGradient>
<linearGradient id="paint1_linear_3089_10833" x1="746.8" y1="-45.935" x2="273.292" y2="1127.04" gradientUnits="userSpaceOnUse">
<stop stop-color="#96FFE1"/>
<stop offset="1" stop-color="#00C48C"/>
</linearGradient>
<linearGradient id="paint2_linear_3089_10833" x1="1084.06" y1="82.6264" x2="785.88" y2="1261.08" gradientUnits="userSpaceOnUse">
<stop stop-color="#96FFE1"/>
<stop offset="1" stop-color="#00C48C"/>
</linearGradient>
<clipPath id="clip0_3089_10833">
<rect width="1635" height="980" fill="white" transform="translate(-98)"/>
</clipPath>
</defs>
</svg>
